X: 1
T: Mon Comp\`ere
O: France
Z: 2015 John Chambers <jc:trillian.mit.edu>
S: Steve Fry 2015-4-27
M: C
L: 1/8
K: D
   D D2D2 | "D"A3A A2A2 | "G"B3B B2B2 | "A7"A3G F2E2 | "D"D3 :|
|: E F2D2 | "A"E3E F2D2 |    E4  E2FG | "A7"A3G F2E2 | "D"D3 :|
